!!!!SEGMENT: pl-kk--kk-i-7--093_gorczycki-grzegorz-gerwazy--magnificet-te-domine.krn
!!!cenid: 16xx:932
!!!COM: Gorczycki, Grzegorz Gerwazy
!!!COM-rismid: pe30009207
!!!CDT: ~1666-1734/04/30
!!!CNT: Polish
!!!OTL: Magnificet te Domine
!!!PDT:
!!!AGN: Sacred
!!!SMS-siglum: PL-Kk
!!!SMS-shelfmark: Kk.I.7
!!!SMS-shelfwork: 093 W
!!!SMS-variant:
!!!SMS-altvar:
!!!NIFC-rismid: 300258170
!!!URL-scan: http://repozytorium.nifc.pl/skany/pl-kk-nut--i-7
!!!ONB-nifc: UWAGA: C (brak), A (brak), T(0237, s.137), B(0325, s.136). Następny utwór: Dignare me laudare
**kern	**text	**kern	**text	**kern	**kern
*part4	*part4	*part3	*part3	*part2	*part1
*staff4	*staff4	*staff3	*staff3	*staff2	*staff1
*I"BASSVS.	*	*I"TENOR.	*	*I"ALTVS.	*I"CANTVS.
*I'B.	*	*I'T.	*	*I'A.	*I'C.
*clefF4	*	*clefC4	*	*clefC3	*clefC4
*k[]	*	*k[]	*	*k[]	*k[]
*M3/2	*	*M3/2	*	*M3/2	*M3/2
=1-	=1-	=1-	=1-	=1-	=1-
!LO:TX:a:t=De S(an)cto\nAdalberto\nTempore\nPaschali.	!	!LO:TX:a:t=De S(an)cto Adalberto\nTempore\nPaschali.	!	!	!LO:TX:t=P:problem:w źródle brak głosów Cantus i Altus
2r	.	2r	.	1.ryy	1.ryy
2r	.	2r	.	.	.
*	*	*2\right	*	*	*
!LO:TX:t=P:problem:M wielkie przed kluczem, na pocz. pięciolinii	!	!	!	!	!
!LO:TX:t=P:problem:kreska pseudotaktowa	!	!LO:TX:t=P:problem:kreska pseudotaktowa	!	!	!
2D/	Ma-	2A\	Ma-	.	.
=2-	=2-	=2-	=2-	=2-	=2-
2.D/	-gni-	2.A/	-gni-	1.ryy	1.ryy
(4E/	.	4G/	.	.	.
4F/	.	4A/	.	.	.
!LO:TX:t=P:problem:kreska pseudotaktowa	!	!LO:TX:t=P:problem:kreska pseudotaktowa	!	!	!
4G/)	.	4B/	.	.	.
=3-	=3-	=3-	=3-	=3-	=3-
*2\right	*	*	*	*	*
2.A\	-fi-	2.c\	.	1.ryy	1.ryy
4A\	-cet	4c\	-fi-	.	.
!LO:TX:t=P:problem:kreska pseudotaktowa	!	!LO:TX:t=P:problem:kreska pseudotaktowa	!	!	!
2E\	te	2c\	-cet	.	.
=4-	=4-	=4-	=4-	=4-	=4-
(2F\	Do-	2A\	Te	1.ryy	1.ryy
2Gn\)	.	2B-X\	Do-	.	.
!LO:TX:t=P:problem:kreska pseudotaktowa	!	!LO:TX:t=P:problem:kreska pseudotaktowa	!	!	!
2A\	-mi-	2A\	-mi-	.	.
=5-	=5-	=5-	=5-	=5-	=5-
2D\	-ne	2A,\	-ne	1.ryy	1.ryy
2D/	Tu-	2d\	Tu-	.	.
!LO:TX:t=P:problem:kreska pseudotaktowa	!	!	!	!	!
2BBn/	-o	4d\	-o	.	.
!	!	!LO:TX:t=P:problem:kreska pseudotaktowa	!	!	!
.	.	4d\	re-	.	.
=6-	=6-	=6-	=6-	=6-	=6-
4AA/	re-	2en\	-dem-	1.ryy	1.ryy
(4BB/	.	.	.	.	.
4C/	.	2e,\	-pta	.	.
4D/)	.	.	.	.	.
!LO:TX:t=P:problem:kreska pseudotaktowa	!	!LO:TX:t=P:problem:kreska pseudotaktowa	!	!	!
*	*	*	*ij	*	*
2E\	-dem-	2e\	re-	.	.
=7-	=7-	=7-	=7-	=7-	=7-
2F,\	-pta	2c\	-dem-	1.ryy	1.ryy
2D\	san-	2d\	-pta	.	.
*	*	*	*Xij	*	*
!LO:TX:t=P:problem:kreska pseudotaktowa	!	!	!	!	!
2E\	-gui-	4Bn\	san-	.	.
!	!	!LO:TX:t=P:problem:kreska pseudotaktowa	!	!	!
.	.	4B\	-gui-	.	.
=8-	=8-	=8-	=8-	=8-	=8-
2AA,/	-ne	1c\,	-ne	1.ryy	1.ryy
(2A\	Ma-	.	.	.	.
!LO:TX:t=P:problem:kreska pseudotaktowa	!	!	!	!	!
2E\)	.	2c\	Ma-	.	.
=9-	=9-	=9-	=9-	=9-	=9-
2F\	-gni-	2A\	.	1.ryy	1.ryy
2G\	.	2Bn\	-gni-	.	.
!LO:TX:t=P:problem:kreska pseudotaktowa	!	!	!	!	!
2A\	-fi-	2A\	-fi-	.	.
=10-	=10-	=10-	=10-	=10-	=10-
2D/	-cet	2A\	-cet	1.ryy	1.ryy
2r	.	2r	.	.	.
!LO:TX:t=P:problem:kreska pseudotaktowa	!	!	!	!	!
2r	.	2r	.	.	.
=11-	=11-	=11-	=11-	=11-	=11-
!LO:TX:t=P:problem:kreska pseudotaktowa	!	!	!	!	!
00.r	.	0.r	.	1.ryy	1.ryy
=12-	=12-	=12-	=12-	=12-	=12-
.	.	.	.	1.ryy	1.ryy
=13-	=13-	=13-	=13-	=13-	=13-
.	.	1.r	.	1.ryy	1.ryy
!	!	!LO:TX:t=P:problem:kreska pseudotaktowa	!	!	!
!	!	!LO:LB:g=original	!	!	!
=14-	=14-	=14-	=14-	=14-	=14-
.	.	2r	.	1.ryy	1.ryy
.	.	2d\	Chri-	.	.
.	.	2d\	-sti-	.	.
=15-	=15-	=15-	=15-	=15-	=15-
2r	.	1c#X\	-a-	1.ryy	1.ryy
2A\	Chri-	.	.	.	.
!LO:TX:t=P:problem:kreska pseudotaktowa	!	!LO:TX:t=P:problem:kreska pseudotaktowa	!	!	!
2A\	-sti-	2A/	-na	.	.
!LO:LB:g=original	!	!	!	!	!
=16-	=16-	=16-	=16-	=16-	=16-
1F\	-a-	4d\	l(ae)-	1.ryy	1.ryy
.	.	4c\	.	.	.
.	.	4d\	.	.	.
.	.	4e\	.	.	.
!LO:TX:t=P:problem:kreska pseudotaktowa	!	!	!	!	!
2D\	-na	4f\	.	.	.
!	!	!LO:TX:t=P:problem:kreska pseudotaktowa	!	!	!
.	.	4d\	.	.	.
=17-	=17-	=17-	=17-	=17-	=17-
4G\	l(ae)-	1e\	.	1.ryy	1.ryy
4F\	.	.	.	.	.
4G\	.	.	.	.	.
4A\	.	.	.	.	.
4B-X\	.	2d\	-ta-	.	.
!LO:TX:t=P:problem:kreska pseudotaktowa	!	!	!	!	!
4G\	.	.	.	.	.
=18-	=18-	=18-	=18-	=18-	=18-
1A\	.	2c\	-bun-	1.ryy	1.ryy
.	.	2c,\	-da	.	.
!LO:TX:t=P:problem:kreska pseudotaktowa	!	!	!	!	!
*	*	*	*ij	*	*
2A\	-ta-	4c\	lae-	.	.
!	!	!LO:TX:t=P:problem:kreska pseudotaktowa	!	!	!
.	.	4c\	-ta-	.	.
=19-	=19-	=19-	=19-	=19-	=19-
(2F\	-bun-	(2d\	-bun-	1.ryy	1.ryy
2E\)	.	2e\)	.	.	.
!LO:TX:t=P:problem:kreska pseudotaktowa	!	!	!	!	!
2D\	-da	2f\	-da	.	.
*	*	*	*Xij	*	*
=20-	=20-	=20--	=20-	=20-	=20-
!LO:TX:t=P:problem:kreska pseudotaktowa	!	!LO:TX:t=P:problem:kreska pseudotaktowa	!	!	!
1.A\	plebs	1.e\	plebs	1.ryy	1.ryy
=21-	=21-	=21-	=21-	=21-	=21-
00.r	.	2.d\	an-	1.ryy	1.ryy
.	.	4d\	-nu-	.	.
.	.	2c#X\	-a	.	.
=22-	=22-	=22--	=22-	=22-	=22-
.	.	(2d\	ad-	1.ryy	1.ryy
.	.	2cn\)	.	.	.
!	!	!LO:TX:t=P:problem:kreska pseudotaktowa	!	!	!
.	.	2B-X\	-al-	.	.
=23-	=23-	=23-	=23-	=23-	=23-
.	.	2A/	-ber-	1.ryy	1.ryy
.	.	2A,/	-ti	.	.
!	!	!LO:TX:t=P:problem:kreska pseudotaktowa	!	!	!
.	.	2A/	Vo-	.	.
=24-	=24-	=24-	=24-	=24-	=24-
.	.	(2B-X\	-ti-	1.ryy	1.ryy
.	.	2A/)	.	.	.
!	!	!LO:TX:t=P:problem:kreska pseudotaktowa	!	!	!
.	.	2G/	-va	.	.
=25-	=25-	=25-	=25-	=25-	=25-
!LO:TX:t=P:problem:kreska pseudotaktowa	!	!	!	!	!
00.r	.	4F/	ce-	1.ryy	1.ryy
.	.	4E/	.	.	.
.	.	4F/	.	.	.
.	.	4G/	.	.	.
.	.	4A/	.	.	.
!	!	!LO:TX:t=P:problem:kreska pseudotaktowa	!	!	!
.	.	4F/	.	.	.
!	!	!LO:LB:g=original	!	!	!
=26-	=26-	=26-	=26-	=26-	=26-
.	.	2.B-X\	.	1.ryy	1.ryy
.	.	4c\	-le-	.	.
.	.	2d\	-brans	.	.
=27-	=27-	=27-	=27-	=27-	=27-
.	.	2B-X\	so-	1.ryy	1.ryy
.	.	2.c\	-len-	.	.
!	!	!LO:TX:t=P:problem:kreska pseudotaktowa	!	!	!
.	.	4c\	-ni-	.	.
=28-	=28-	=28-	=28-	=28-	=28-
.	.	1F/	-a	1.ryy	1.ryy
!	!	!LO:TX:t=P:problem:kreska pseudotaktowa	!	!	!
.	.	2r	.	.	.
=29-	=29-	=29-	=29-	=29-	=29-
1D\	Cu-	1A\	Cu-	1.ryy	1.ryy
!LO:TX:t=P:problem:kreska pseudotaktowa	!	!	!	!	!
2G\	-jus	2Bn\	-jus	.	.
=30-	=30-	=30-	=30-	=30-	=30-
1D\	mor-	1A\	mor-	1.ryy	1.ryy
!LO:TX:t=P:problem:kreska pseudotaktowa	!	!	!	!	!
2AA/	-te	2A/	-te	.	.
=31-	=31-	=31-	=31-	=31-	=31-
2.GG/	pre-	1B\	pre-	1.ryy	1.ryy
4AA/	.	.	.	.	.
4BB-X/	.	2G/	-ti-	.	.
!LO:TX:t=P:problem:kreska pseudotaktowa	!	!	!	!	!
4C/	-ti-	.	.	.	.
=32-	=32-	=32-	=32-	=32-	=32-
1D\	-o-	1d\	-o-	1.ryy	1.ryy
!LO:TX:t=P:problem:kreska pseudotaktowa	!	!LO:TX:t=P:problem:kreska pseudotaktowa	!	!	!
2D\	-sa	2d\	-sa	.	.
=33-	=33-	=33-	=33-	=33-	=33-
2D/	de-	2d\	de-	1.ryy	1.ryy
2D/	-vo-	2d\	-vo-	.	.
!LO:TX:t=P:problem:kreska pseudotaktowa	!	!	!	!	!
2AA/	-ta	2c\	-ta	.	.
=34-	=34-	=34-	=34-	=34-	=34-
1C/	pro-	1c\	pro-	1.ryy	1.ryy
!LO:TX:t=P:problem:kreska pseudotaktowa	!	!LO:TX:t=P:problem:kreska pseudotaktowa	!	!	!
2FF/	-nit	2c\	-nit	.	.
=35-	=35-	=35-	=35-	=35-	=35-
2BB-X/	gau-	1B-X\	gau-	1.ryy	1.ryy
2GG/	.	.	.	.	.
2AA/	-di-	2A\	-di-	.	.
=36-	=36-	=36-	=36-	=36-	=36-
!LO:TX:t=P:problem:kreska pseudotaktowa	!	!LO:TX:t=P:problem:kreska pseudotaktowa	!	!	!
1.D\	-a	1.A\	-a	1.ryy	1.ryy
=37-	=37-	=37-	=37-	=37-	=37-
1C/	ut	1c\	ut	1.ryy	1.ryy
!LO:TX:t=P:problem:kreska pseudotaktowa	!	!	!	!	!
2C/	per	2c\	per	.	.
=38-	=38-	=38-	=38-	=38-	=38-
1D\	e-	1A\	e-	1.ryy	1.ryy
!LO:TX:t=P:problem:kreska pseudotaktowa	!	!	!	!	!
!LO:SIC:o:v=custos b	!	!	!	!	!
2AA/	-jus	2A/	-jus	.	.
!LO:LB:g=original	!	!	!	!	!
=39-	=39-	=39-	=39-	=39-	=39-
2BB-X/	suf-	2d\	suf-	1.ryy	1.ryy
2GG/	.	2B-X\	-fra-	.	.
4C/	-fra-	2c\	-gi-	.	.
4C/	-gi-	.	.	.	.
=40-	=40-	=40-	=40-	=40-	=40-
!LO:TX:t=P:problem:kreska pseudotaktowa	!	!LO:TX:t=P:problem:kreska pseudotaktowa	!	!	!
1.F\,	-a	1.c\	-a	1.ryy	1.ryy
=41-	=41-	=41-	=41-	=41-	=41-
1F\	Tu-	1c\	Tu-	1.ryy	1.ryy
!LO:TX:t=P:problem:kreska pseudotaktowa	!	!LO:TX:t=P:problem:kreska pseudotaktowa	!	!	!
!	!	!LO:SIC:o:v=custos c	!	!	!
2F\	-a	2A/	-a	.	.
!	!	!LO:LB:g=original	!	!	!
=42-	=42-	=42-	=42-	=42-	=42-
2C/	im-	2c\	im-	1.ryy	1.ryy
4C/	-pe-	4c\	-pe-	.	.
4C/	-tret	4c\	-tret	.	.
!LO:TX:t=P:problem:kreska pseudotaktowa	!	!	!	!	!
2D/	be-	2A\	be-	.	.
=43-	=43-	=43-	=43-	=43-	=43-
2GG/	-ne-	2B-X\	-ne-	1.ryy	1.ryy
2.AA/	-fi-	2.A\	-fi-	.	.
!LO:TX:t=P:problem:kreska pseudotaktowa	!	!LO:TX:t=P:problem:kreska pseudotaktowa	!	!	!
4AA/	-ci-	4A\	-ci-	.	.
=44-	=44-	=44-	=44-	=44-	=44-
2D,/	-a	2A,\	-a	1.ryy	1.ryy
2D/	tu-	2d\	Tu-	.	.
!LO:TX:t=P:problem:kreska pseudotaktowa	!	!	!	!	!
2BBn/	-a	2d\	-a	.	.
=45-	=45-	=45-	=45-	=45-	=45-
4AA/	im-	2.e\	im-	1.ryy	1.ryy
(4BB/	-pe-	.	.	.	.
4C/	.	.	.	.	.
4D/)	.	4e\	-pe-	.	.
!LO:TX:t=P:problem:kreska pseudotaktowa	!	!	!	!	!
2E\	-tret	2e\	-tret	.	.
=46-	=46-	=46-	=46-	=46-	=46-
2F\	be-	2c\	be-	1.ryy	1.ryy
2D\	-ne-	2d\	-ne-	.	.
4E\	-fi-	4B\	-fi-	.	.
!LO:TX:t=P:problem:kreska pseudotaktowa	!	!	!	!	!
4E\	-ci-	4B\	-ci-	.	.
=47-	=47-	=47-	=47-	=47-	=47-
!LO:TX:t=P:problem:kreska pseudotaktowa	!	!LO:TX:t=P:problem:kreska pseudotaktowa	!	!	!
1.AA/	-a,	1.c\	-a	1.ryy	1.ryy
=48-	=48-	=48-	=48-	=48-	=48-
2A\	al-	2e\	al-	1.ryy	1.ryy
2E\	-le-	2e\	-le-	.	.
2F\	-lu-	2c\	-lu-	.	.
=49-	=49-	=49-	=49-	=49-	=49-
!	!	!LO:TX:t=P:problem:kreska pseudotaktowa	!	!	!
1.C/	-ia	1.c\	-ia	1.ryy	1.ryy
=50-	=50-	=50-	=50-	=50-	=50-
*	*ij	*	*ij	*	*
2F\	al-	2c\	al-	1.ryy	1.ryy
2D\	-le-	2c\	-le-	.	.
2E\	-lu-	2A/	-lu-	.	.
=51-	=51-	=51-	=51-	=51-	=51-
!LO:TX:t=P:problem:kreska pseudotaktowa	!	!LO:TX:t=P:problem:kreska pseudotaktowa	!	!	!
1.AA/	-ia	1.A\	-ia	1.ryy	1.ryy
*	*Xij	*	*Xij	*	*
=52-	=52-	=52-	=52-	=52-	=52-
2FF/	al-	2d\	al-	1.ryy	1.ryy
2GG/	-le-	2e\	-le-	.	.
2AA/	-lu-	2A/	-lu-	.	.
=53-	=53-	=53-	=53-	=53-	=53-
1D\,	-ia	1A\,	-ia	1.ryy	1.ryy
!LO:TX:t=P:problem:kreska pseudotaktowa	!	!LO:TX:t=P:problem:kreska pseudotaktowa	!	!	!
*	*	*	*ij	*	*
2B-X\	al-	2d\	al-	.	.
=54-	=54-	=54-	=54-	=54-	=54-
2G\	-le-	1d\	-le-	1.ryy	1.ryy
1A\	-lu-	.	.	.	.
.	.	2c#X\	-lu-	.	.
=55-	=55-	=55-	=55-	=55-	=55-
!	!	!LO:N:vis=0	!	!	!
1.D\	-ia.	1.d\;	-ia	1.ryy	1.ryy
==	==	==	==	==	==
*-	*-	*-	*-	*-	*-
!!!system-decoration: [(s1,s2,s3,s4)]
!!!EED: Leszek Kubiak
!!!EST: 2021-03-22
!!!ENC: Mateusz Solarz
!!!END: 2021-03-04
